X:1
T:Title
%%score 1 { 2 | 3 }
L:1/8
Q:1/4=125
M:3/4
K:C
V:1 treble nm="Grand Piano, Soprano"
V:2 bass nm="Choir Pad, Who Will Run?, 1880"
V:3 bass 
V:1
 [CE]2 [CE]2 [CE]2 | [CE]4 D[CE] | [CG]4 [B,F]2 | [B,D]4 [B,D][CE] | [DF]4 [DF]2 | %5
w: By~Edmund~Simon~Lorenz * *|||||
 [DF]2 [CE]2 [DF]2 | [FA]4 [EG]2 | [CE]4 [CE][DF] | [EG]4 [Ec]2 | [Ec]2 [DB]2 [Ec]2 | [Fd]4 [FA]2 | %11
w: ||||||
 [Ac]4 [GB][FA] | [EG]4 [CE]2 | [EG]2 [Ec]2 [Ge]2 | [Fd]4 [DB]2 | [Ec]4 [CE][DF] | %16
w: |||||
 [EG]2 [Ec]2 [Ec]2 | [Ec]2 [DB]2 [Ec][Ec] | [Fd]2 [Fd]2 [Ge]2 | [Ec]4 [EG][EG] | %20
w: ||||
 [FA]2 [Fc]2 [Fc]2 | [^Fc]2 [FB]2 [Fc]2 | [Ge]2 [Gd]2 [G^c]2 | [Gd]4 [CE][DF] | [EG]2 [Ec]2 [Ec]2 | %25
w: |||||
 [Fd]2 [Fc]2 [Fd]2 | [Ge]2 [Ec]2 [EG]2 | [FA]4 [Fc]2 | G4 E2 | [B,G]4 [A,C]2 | [CE]4 [B,D]2 | C6- | %32
w: |||||||
 C2 z2 z2 |] %33
w: |
V:2
 G,2 G,2 G,2 | G,4 G,G, | G,4 G,2 | G,4 G,G, | G,4 B,2 | B,2[K:treble] C2 B,2 | C4 C2 | %7
 G,4[K:bass] G,G, | C4 G,2 | A,2 A,2 A,2 | A,4[K:treble] C2 | C4 CC | C4[K:bass] G,2 | G,2 G,2 C2 | %14
 A,4 G,2 | G,4 z2 | z6 | z2 z2 G,2 | B,2 B,2 G,2 | G,4[K:treble] CC | C2 A,2 A,2 | A,2 D2 C2 | %22
 C2[K:bass] B,2 _B,2 | B,4 G,G, | C2 G,2 G,2 | A,2 A,2 A,2 | C2 G,2 C2 | C4 A,2 | C4[K:bass] G,2 | %29
 G,4 E,2 | G,4 F,2 | E,6- | E,2 z2 z2 |] %33
V:3
 C,2 C,2 C,2 | C,4 B,,C, | E,4 D,2 | G,,4 G,,G,, | G,,4 G,,2 | G,,2 G,,2 G,,2 | C,4 C,2 | %7
 C,4 C,C, | C,4 C,2 | z6 | F,4 F,2 | F,4 F,F, | C,4 C,2 | C,2 C,2 C,2 | F,4 z2 | C,4 z2 | z6 | z6 | %18
 G,2 G,2 z2 | C,4 C,C, | F,2 F,2 F,2 | D,2 D,2 D,2 | G,2 G,2 G,2 | G,4 C,C, | C,2 C,2 C,2 | %25
 C,2 C,2 C,2 | C,2 C,2 C,2 | F,4 F,2 | E,4 C,2 | G,,4 A,,2 | G,,4 G,,2 | C,6- | C,2 z2 z2 |] %33

